X:1
T:Title
%%score { 1 | ( 2 3 ) }
L:1/8
Q:1/4=104
M:6/8
K:Bb
V:1 treble nm="Grand Piano"
V:2 bass 
V:3 bass 
V:1
 [DF]2 [DF] [DF]2 [DF] | [Fd]3 [FB]3 | [GB]2 [GB] [FA]2 [EG] | [DF]6 | E2 E E2 E | [Ec]3 [=EG]3 | %6
w: Robert~Lowry * * *||||||
 [FA]2 [FA] [GB]2 [=EG] | F6 | A2 B c2 A | [DB]3 [DF]3 | A2 B c2 F | [Fd]6 | %12
w: ||||||
 [Ge]2 [Fd] [Ec]2 [DB] | [Ec]2 [GB] [FA]2 G | F3 B2 c | [DB]6 | c2 F c3 | d2 B d3 | e2 d c2 B | %19
w: |||||||
 c6 | [Fd]2 [Fd] [Fc]2 [FB] | [Ec]2 [GB] [FA]2 G | F3 B2 c | [DFB]6 |] %24
w: |||||
V:2
 [B,,B,]2 [B,,B,] [B,,B,]2 [B,,B,] | [B,,B,]3 [D,B,]3 | [E,B,]2 [E,B,] [E,B,]2 [E,B,] | [B,,B,]6 | %4
 [C,G,C]2 [C,G,C] [C,G,C]2 [C,G,C] | [C,G,]3 [C,C]3 | [F,C]2 [F,C] [C,C]2 [C,B,] | [F,A,]6 | %8
 [F,CE]2 [F,B,D] [F,A,E]2 [F,CE] | [B,,B,]3 [B,,B,]3 | [F,CE]2 [F,B,D] [F,A,F]2 [F,A,] | [B,,B,]6 | %12
 [B,,B,]2 [B,,B,] [B,,B,]2 [B,,B,] | [E,G,]2 [E,B,] [E,B,]2 [E,B,E] | [F,B,D]3 D2 E | [B,,F,]6 | %16
 [F,A,F]2 [F,A,][K:treble] [F,A,F]3 | [B,F]2 [B,D] [B,F]3 | [A,CF]2 [B,F] [A,CF]2[K:bass] [G,C=E] | %19
 [F,A,F]6 | [B,,B,]2 [B,,B,] [C,A,]2 [D,B,] | [E,G,]2 [E,B,] [E,B,]2 [E,B,E] | [F,B,D]3 D2 E | %23
 B,,6 |] %24
V:3
 x6 | x6 | x6 | x6 | x6 | x6 | x6 | x6 | x6 | x6 | x6 | x6 | x6 | x6 | z3 F,3 | x6 | %16
 x3[K:treble] x3 | x6 | x5[K:bass] x | x6 | x6 | x6 | z3 [F,F]3 | x6 |] %24

